X:1
T:Yankee Doodle
M:2/4
L:1/8
K:G
 G/2G/2 GA B| GB AD| GG AB| G2 FD| GG AB| cB AG| FD EF| G2 G2| E3/2 F/2 ED|\
 EF G2| D3/2 E/2 DC| B,2 D2| E3/2 F/2 ED| EF GE| DG FA| G2 G z|
